X:1037
T:Come Back Paddy Reilly
C:Joe Buchanan's Scottish Tome - Page 628.0
I:628 0
Z:Carl Allison
R:Waltz
L:1/4
M:3/4
K:F
A/B/ | "F"c2 (d/c/) | A G F | "Bb"D<F D | "F"C2 C | F>F F | "C" G F G | "F"A3- | A z C |
"F"c2 (d/c/) | A G F | "Bb"D<F D | "F"C2 C | F>F F | "C" G F G | "F"F3- | F z F |
"Bb"d>d d | d B d | "F"d c>A | c2 A | "G"A>G G | d d =B | "C"c3- | c2 c |
"F"c2 (d/c/) | A G F | "Bb"D<F D | "F"C2 A | A G F | "C" G>F G | "F"F3- | F z F |
|: "Bb"d2 d | d B d | "F"d c A | c2 A | "G"A>G G | "G7"d d =c | "C"c3- | "C7"c2 c | 
"F"c2 (d/c/) | A G F | "Bb"D<F D | "F"C2 A | A G F | "C" G>F G | "F"F3- | F z F :|

